Systematic/src/svg/Sony - PlayStation 2 PSX-5000.svg

<svg xmlns="http://www.w3.org/2000/svg" xml:space="preserve" width="320" height="335.755"><defs><clipPath id="a" clipPathUnits="userSpaceOnUse"><path d="M0 256h256V0H0Z"/></clipPath><clipPath id="b" clipPathUnits="userSpaceOnUse"><path d="M8 252h240V.184H8Z"/></clipPath></defs><g clip-path="url(#a)" transform="matrix(1.33333 0 0 -1.33333 -10.667 336)"><g clip-path="url(#b)" style="opacity:.5"><path d="M0 0h-232v-251.816l10.971 4.388 20 8 5.029 2.012V-228h168v-9.416l5.029-2.012 20-8L8-251.816V0Z" style="fill:#fff;fill-opacity:1;fill-rule:nonzero;stroke:none" transform="translate(240 252)"/></g></g><path d="m0 0-20-8v232h8z" style="fill:#b3b3b3;fill-opacity:1;fill-rule:nonzero;stroke:none" transform="matrix(1.33333 0 0 -1.33333 37.333 309.333)"/><path d="m0 0 20-8v232h-8Z" style="fill:#b3b3b3;fill-opacity:1;fill-rule:nonzero;stroke:none" transform="matrix(1.33333 0 0 -1.33333 282.667 309.333)"/><path d="M0 0v-216l16-4L4 0Z" style="fill:#999;fill-opacity:1;fill-rule:nonzero;stroke:none" transform="matrix(1.33333 0 0 -1.33333 16 10.667)"/><path d="M0 0v-216l-16-4L-4 0Z" style="fill:#999;fill-opacity:1;fill-rule:nonzero;stroke:none" transform="matrix(1.33333 0 0 -1.33333 304 10.667)"/><path d="M232 32H24v212h208z" style="fill:#e6e6e6;fill-opacity:1;fill-rule:nonzero;stroke:none" transform="matrix(1.33333 0 0 -1.33333 -10.667 336)"/></svg>

<?xml version="1.0" encoding="UTF-8" standalone="no"?>
<svg
   xmlns:dc="http://purl.org/dc/elements/1.1/"
   xmlns:cc="http://creativecommons.org/ns#"
   xmlns:rdf="http://www.w3.org/1999/02/22-rdf-syntax-ns#"
   xmlns:svg="http://www.w3.org/2000/svg"
   xmlns="http://www.w3.org/2000/svg"
   viewBox="0 0 320 335.75467"
   height="335.75467"
   width="320"
   xml:space="preserve"
   id="svg2"
   version="1.1"><metadata
     id="metadata8"><rdf:RDF><cc:Work
         rdf:about=""><dc:format>image/svg+xml</dc:format><dc:type
           rdf:resource="http://purl.org/dc/dcmitype/StillImage" /></cc:Work></rdf:RDF></metadata><defs
     id="defs6"><clipPath
       id="clipPath18"
       clipPathUnits="userSpaceOnUse"><path
         id="path16"
         d="M 0,256 H 256 V 0 H 0 Z" /></clipPath><clipPath
       id="clipPath26"
       clipPathUnits="userSpaceOnUse"><path
         id="path24"
         d="M 8,252 H 248 V 0.183777 H 8 Z" /></clipPath></defs><g
     transform="matrix(1.3333333,0,0,-1.3333333,-10.666666,335.99999)"
     id="g10"><g
       id="g12"><g
         clip-path="url(#clipPath18)"
         id="g14"><g
           id="g20"><g
             id="g22" /><g
             id="g34"><g
               style="opacity:0.5"
               id="g32"
               clip-path="url(#clipPath26)"><g
                 id="g30"
                 transform="translate(240,252)"><path
                   id="path28"
                   style="fill:#ffffff;fill-opacity:1;fill-rule:nonzero;stroke:none"
                   d="m 0,0 h -4 -4 -12 -184 -12 -4 -4 -8 v -8 -232 -11.816 l 10.971,4.388 20,8 5.029,2.012 v 5.416 4 h 168 v -4 -5.416 l 5.029,-2.012 20,-8 L 8,-251.816 V -240 -8 0 Z" /></g></g></g></g></g></g><g
       transform="translate(36,20)"
       id="g36"><path
         id="path38"
         style="fill:#b3b3b3;fill-opacity:1;fill-rule:nonzero;stroke:none"
         d="m 0,0 -20,-8 v 232 h 8 z" /></g><g
       transform="translate(220,20)"
       id="g40"><path
         id="path42"
         style="fill:#b3b3b3;fill-opacity:1;fill-rule:nonzero;stroke:none"
         d="M 0,0 20,-8 V 224 H 12 Z" /></g><g
       transform="translate(20,244)"
       id="g44"><path
         id="path46"
         style="fill:#999999;fill-opacity:1;fill-rule:nonzero;stroke:none"
         d="M 0,0 V -216 L 16,-220 4,0 Z" /></g><g
       transform="translate(236,244)"
       id="g48"><path
         id="path50"
         style="fill:#999999;fill-opacity:1;fill-rule:nonzero;stroke:none"
         d="M 0,0 V -216 L -16,-220 -4,0 Z" /></g><path
       id="path52"
       style="fill:#e6e6e6;fill-opacity:1;fill-rule:nonzero;stroke:none"
       d="M 232,32 H 24 v 212 h 208 z" /></g></svg>
